X: 113
T:Mucking o' Geordie's Byre, The
M:6/8
L:1/8
S:Transcribed from Jay Ungar's "Farmer Set" version by S.C.
R:Jig
O:Scotland
K:D
|:A-BA AFA|"Slide"{c}[D2d2]e f2a|~g2e f2d|e2d B-cd|[DA]-BA AFA|!
{c}[D2d2]e f2g|afd efe|[1[D3d3] dcB:|[2d3 def||[B2g2] g g-ab|[A2f2] f f-
ga|[Ae]-fe ede|!
~fed B-dB|[B2g2]g g-ab|[Af]af fed|a2 f e-fe|[F2d2] d def|[B2g2]g g-ab|[A
2f2] f f-ga|[Ae]-fe ede|~fed B-dB|
[DA]BA AFA|{c}[D2d2]e f2g|afd efe|[1d3 def|[2d3 [d3f3]|]
